X: 15
T:Lobab2er Bu Eitle qu monno por, n'es fins
O:France
A:Fr?titi la, set dorchet Gines
O:Fran


*****************************


6200 3 1.1039361 

<start>
am!che | dgd e2d | c4 z2 ||
P:A
V:1
Adf | gfeg | fedd | d3 | cBc | d4 | d3e | e3f2 | efeg | d4_ |


*****************************


6300 3 1.8556203 

<starton: mail xu Dous n'ur du le ah
S:7:
I:1785
Z:Transcrit et/ou corrig? par Michel BELLON - 200-07-10



*****************************


6400 3 0.92628485 

<starsothetou pailtopmauplielle@frear
M:2/4
L:1/18
K:C
^FGiF nand+c2 CE|GB BA/B/|
FA AG|G2A2|c2c2|e(3f/2f


*****************************


6500 3 1.6010413 

<start>
